X:1
T:Tisbury, 86.88.666
T:Tisbury, 86.88.666
T:A Compilation of Genuine Church Music, 1847
T:Public Domain Courtesy of the Cyber Hymnal™
C:A Compilation of Genuine Church Music, 1847
Z:Public Domain
Z:Courtesy of the Cyber Hymnal™
%%score ( 1 2 ) ( 3 4 )
L:1/8
Q:1/4=105
M:2/4
K:C
V:1 treble 
V:2 treble 
V:3 bass 
V:4 bass 
V:1
 G2 | (c>d) (e>f) | (gf e)[Ad] | [Gc]2 [Gd]2 | !fermata![Gd]2 [Gg]2 | (ed e)[Ad] | [Gc]2 [GB]2 | %7
 !fermata![Gc]2 [Gc]2 | (ed e)[Af] | [Gg]2 (fe) | (dc B)[DA] | !fermata![EG]2 [EB]2 | %12
 ([Fc][EB] [Fc])[Gd] | [Ae]2 [Af]2 | [ce] ([Bd] [Ac])[GB] | !fermata![Gc]2 [EG]2 | %16
 [Gc][Gc] [Gc][Gc] | [Gc]3 [Ec] | [Ce][Ce] [Ce][Ce] | [B,d]3 [B,d] | (ed/e/ f)[Dd] | [Cc]2 [DB]2 | %22
 !fermata![Ec]2 |] %23
V:2
 G2 | G2 G2 | G3 x | x4 | x4 | G3 x | x4 | x4 | G3 x | x2 G2 | G3 x | x4 | x4 | x4 | x4 | x4 | x4 | %17
 x4 | x4 | x4 | C3 x | x4 | x2 |] %23
V:3
 G,2 | [C,G,]2 (C>D) | ([C,E][D,D] [E,C])[F,F] | [G,E]2 (DC) | !fermata![G,G]2 [G,E]2 | %5
 (CB, C)[F,D] | [G,E]2 [G,,G,D]2 | !fermata![C,E]2 [C,E]2 | (CB, C)[D,D] | [C,E]2 ([B,,D][C,C]) | %10
 (B,A, G,)[D,^F,] | !fermata!G,2 G,2 | (A,G, A,)B, | C2 (B,A,) | (G,F, E,)D, | %15
 !fermata!C,2 [C,C]2 | [C,E][C,E] [C,E][C,E] | [C,E]3 [C,E] | [CG][CG] [CG][CG] | [G,G]3 [G,G] | %20
 ([CG]2 [F,A])[F,A] | [G,G]2 [G,G]2 | !fermata![C,E]2 |] %23
V:4
 G,2 | x2 C,2 | x4 | x2 G,2 | x4 | C,3 x | x4 | x4 | C,3 x | x4 | D,3 x | G,2 G,2 | x4 | x4 | %14
 x3 D, | C,2 x2 | x4 | x4 | x4 | x4 | x4 | x4 | x2 |] %23

